X:395
T:Miss McLean
R:Reel
O:Scotland
B:Kerr's Third p21
S:Kerr's Third
Z:Transcription, chords:Mike Long
M:C|
L:1/8
K:Bb
c|\
"Gm"BGDG BGdB|"F"AFCF AFcA|"Gm"BGDG "Bb"BGdB|"F"AFcA "Gm"BGG:|\
d|\
"Gm"gabg dgBg|"F"fgfc AFcA|
"Gm"gabg "Bb"dgBg|"F"cAdc "Gm"BGGd|\
"Gm"gabg dgBg|"F"fgfc AFcA|"Gm"GABc "Bb"dBfd|"F"cAFA "Gm"BGG|]
